science/geometry/desmos-graph (6).svg

<svg version="1.1" xmlns="http://www.w3.org/2000/svg" xmlns:xlink="http://www.w3.org/1999/xlink" width="800" height="800"><defs/><g transform="scale(2,2)"><g id="background-91719132"><rect fill="white" stroke="none" x="0" y="0" width="400" height="400" class="dcg-svg-background"/></g><g id="graphpaper-91719132"><g id="grid-91719132"><g><path fill="none" stroke="rgb(0,0,0)" class="dcg-svg-minor-gridline" paint-order="fill stroke markers" d=" M 8.5 0 L 8.5 400" stroke-opacity="0.5" stroke-miterlimit="10" stroke-dasharray=""/><path fill="none" stroke="rgb(0,0,0)" class="dcg-svg-minor-gridline" paint-order="fill stroke markers" d=" M 37.5 0 L 37.5 400" stroke-opacity="0.5" stroke-miterlimit="10" stroke-dasharray=""/><path fill="none" stroke="rgb(0,0,0)" class="dcg-svg-minor-gridline" paint-order="fill stroke markers" d=" M 66.5 0 L 66.5 400" stroke-opacity="0.5" stroke-miterlimit="10" stroke-dasharray=""/><path fill="none" stroke="rgb(0,0,0)" class="dcg-svg-minor-gridline" paint-order="fill stroke markers" d=" M 95.5 0 L 95.5 400" stroke-opacity="0.5" stroke-miterlimit="10" stroke-dasharray=""/><path fill="none" stroke="rgb(0,0,0)" class="dcg-svg-minor-gridline" paint-order="fill stroke markers" d=" M 123.5 0 L 123.5 400" stroke-opacity="0.5" stroke-miterlimit="10" stroke-dasharray=""/><path fill="none" stroke="rgb(0,0,0)" class="dcg-svg-minor-gridline" paint-order="fill stroke markers" d=" M 181.5 0 L 181.5 400" stroke-opacity="0.5" stroke-miterlimit="10" stroke-dasharray=""/><path fill="none" stroke="rgb(0,0,0)" class="dcg-svg-minor-gridline" paint-order="fill stroke markers" d=" M 210.5 0 L 210.5 400" stroke-opacity="0.5" stroke-miterlimit="10" stroke-dasharray=""/><path fill="none" stroke="rgb(0,0,0)" class="dcg-svg-minor-gridline" paint-order="fill stroke markers" d=" M 238.5 0 L 238.5 400" stroke-opacity="0.5" stroke-miterlimit="10" stroke-dasharray=""/><path fill="none" stroke="rgb(0,0,0)" class="dcg-svg-minor-gridline" paint-order="fill stroke markers" d=" M 267.5 0 L 267.5 400" stroke-opacity="0.5" stroke-miterlimit="10" stroke-dasharray=""/><path fill="none" stroke="rgb(0,0,0)" class="dcg-svg-minor-gridline" paint-order="fill stroke markers" d=" M 296.5 0 L 296.5 400" stroke-opacity="0.5" stroke-miterlimit="10" stroke-dasharray=""/><path fill="none" stroke="rgb(0,0,0)" class="dcg-svg-minor-gridline" paint-order="fill stroke markers" d=" M 325.5 0 L 325.5 400" stroke-opacity="0.5" stroke-miterlimit="10" stroke-dasharray=""/><path fill="none" stroke="rgb(0,0,0)" class="dcg-svg-minor-gridline" paint-order="fill stroke markers" d=" M 354.5 0 L 354.5 400" stroke-opacity="0.5" stroke-miterlimit="10" stroke-dasharray=""/><path fill="none" stroke="rgb(0,0,0)" class="dcg-svg-minor-gridline" paint-order="fill stroke markers" d=" M 382.5 0 L 382.5 400" stroke-opacity="0.5" stroke-miterlimit="10" stroke-dasharray=""/><path fill="none" stroke="rgb(0,0,0)" class="dcg-svg-minor-gridline" paint-order="fill stroke markers" d=" M 0 371.5 L 400 371.5" stroke-opacity="0.5" stroke-miterlimit="10" stroke-dasharray=""/><path fill="none" stroke="rgb(0,0,0)" class="dcg-svg-minor-gridline" paint-order="fill stroke markers" d=" M 0 343.5 L 400 343.5" stroke-opacity="0.5" stroke-miterlimit="10" stroke-dasharray=""/><path fill="none" stroke="rgb(0,0,0)" class="dcg-svg-minor-gridline" paint-order="fill stroke markers" d=" M 0 314.5 L 400 314.5" stroke-opacity="0.5" stroke-miterlimit="10" stroke-dasharray=""/><path fill="none" stroke="rgb(0,0,0)" class="dcg-svg-minor-gridline" paint-order="fill stroke markers" d=" M 0 285.5 L 400 285.5" stroke-opacity="0.5" stroke-miterlimit="10" stroke-dasharray=""/><path fill="none" stroke="rgb(0,0,0)" class="dcg-svg-minor-gridline" paint-order="fill stroke markers" d=" M 0 256.5 L 400 256.5" stroke-opacity="0.5" stroke-miterlimit="10" stroke-dasharray=""/><path fill="none" stroke="rgb(0,0,0)" class="dcg-svg-minor-gridline" paint-order="fill stroke markers" d=" M 0 228.5 L 400 228.5" stroke-opacity="0.5" stroke-miterlimit="10" stroke-dasharray=""/><path fill="none" stroke="rgb(0,0,0)" class="dcg-svg-minor-gridline" paint-order="fill stroke markers" d=" M 0 170.5 L 400 170.5" stroke-opacity="0.5" stroke-miterlimit="10" stroke-dasharray=""/><path fill="none" stroke="rgb(0,0,0)" class="dcg-svg-minor-gridline" paint-order="fill stroke markers" d=" M 0 141.5 L 400 141.5" stroke-opacity="0.5" stroke-miterlimit="10" stroke-dasharray=""/><path fill="none" stroke="rgb(0,0,0)" class="dcg-svg-minor-gridline" paint-order="fill stroke markers" d=" M 0 112.5 L 400 112.5" stroke-opacity="0.5" stroke-miterlimit="10" stroke-dasharray=""/><path fill="none" stroke="rgb(0,0,0)" class="dcg-svg-minor-gridline" paint-order="fill stroke markers" d=" M 0 84.5 L 400 84.5" stroke-opacity="0.5" stroke-miterlimit="10" stroke-dasharray=""/><path fill="none" stroke="rgb(0,0,0)" class="dcg-svg-minor-gridline" paint-order="fill stroke markers" d=" M 0 55.5 L 400 55.5" stroke-opacity="0.5" stroke-miterlimit="10" stroke-dasharray=""/><path fill="none" stroke="rgb(0,0,0)" class="dcg-svg-minor-gridline" paint-order="fill stroke markers" d=" M 0 26.5 L 400 26.5" stroke-opacity="0.5" stroke-miterlimit="10" stroke-dasharray=""/><path fill="none" stroke="rgb(0,0,0)" class="dcg-svg-major-gridline" paint-order="fill stroke markers" d=" M 8.5 0 L 8.5 400" stroke-opacity="1" stroke-miterlimit="10" stroke-dasharray=""/><path fill="none" stroke="rgb(0,0,0)" class="dcg-svg-major-gridline" paint-order="fill stroke markers" d=" M 296.5 0 L 296.5 400" stroke-opacity="1" stroke-miterlimit="10" stroke-dasharray=""/><path fill="none" stroke="rgb(0,0,0)" class="dcg-svg-major-gridline" paint-order="fill stroke markers" d=" M 0 343.5 L 400 343.5" stroke-opacity="1" stroke-miterlimit="10" stroke-dasharray=""/><path fill="none" stroke="rgb(0,0,0)" class="dcg-svg-major-gridline" paint-order="fill stroke markers" d=" M 0 55.5 L 400 55.5" stroke-opacity="1" stroke-miterlimit="10" stroke-dasharray=""/></g></g><g id="axis-91719132"><g id="yaxis-91719132"><title>Y axis</title><g><path fill="none" stroke="rgb(0,0,0)" class="dcg-svg-axis-line" paint-order="fill stroke markers" d=" M 153 0 L 153 400" stroke-opacity="0.9" stroke-miterlimit="10" stroke-width="2" stroke-dasharray=""/></g></g><g id="xaxis-91719132"><title>X axis</title><g><path fill="none" stroke="rgb(0,0,0)" class="dcg-svg-axis-line" paint-order="fill stroke markers" d=" M 0 199 L 400 199" stroke-opacity="0.9" stroke-miterlimit="10" stroke-width="2" stroke-dasharray=""/></g></g><g><g class="dcg-svg-axis-value"><text fill="none" stroke="#ffffff" font-family="Arial" font-size="20px" font-style="normal" font-weight="normal" text-decoration="normal" x="142.1085402467455" y="219.75276962665023" text-anchor="middle" stroke-miterlimit="2" stroke-width="3" stroke-dasharray="">0</text><text fill="#000000" stroke="none" font-family="Arial" font-size="20px" font-style="normal" font-weight="normal" text-decoration="normal" x="142.1085402467455" y="219.75276962665023" text-anchor="middle">0</text></g><g class="dcg-svg-axis-value dcg-svg-offcenter-axis-value"><text fill="none" stroke="#ffffff" font-family="Arial" font-size="20px" font-style="normal" font-weight="normal" text-decoration="normal" x="11.8916015625" y="219.75276962665023" text-anchor="middle" stroke-miterlimit="2" stroke-width="3" stroke-dasharray="">-5</text><text fill="#000000" stroke="none" font-family="Arial" font-size="20px" font-style="normal" font-weight="normal" text-decoration="normal" x="11.8916015625" y="219.75276962665023" text-anchor="middle">-5</text></g><g class="dcg-svg-axis-value"><text fill="none" stroke="#ffffff" font-family="Arial" font-size="20px" font-style="normal" font-weight="normal" text-decoration="normal" x="296.54118628289365" y="219.75276962665023" text-anchor="middle" stroke-miterlimit="2" stroke-width="3" stroke-dasharray="">5</text><text fill="#000000" stroke="none" font-family="Arial" font-size="20px" font-style="normal" font-weight="normal" text-decoration="normal" x="296.54118628289365" y="219.75276962665023" text-anchor="middle">5</text></g><g class="dcg-svg-axis-value"><text fill="none" stroke="#ffffff" font-family="Arial" font-size="20px" font-style="normal" font-weight="normal" text-decoration="normal" x="138.7784621217455" y="348.62389222529833" text-anchor="middle" stroke-miterlimit="2" stroke-width="3" stroke-dasharray="">-5</text><text fill="#000000" stroke="none" font-family="Arial" font-size="20px" font-style="normal" font-weight="normal" text-decoration="normal" x="138.7784621217455" y="348.62389222529833" text-anchor="middle">-5</text></g><g class="dcg-svg-axis-value"><text fill="none" stroke="#ffffff" font-family="Arial" font-size="20px" font-style="normal" font-weight="normal" text-decoration="normal" x="142.1085402467455" y="60.88164702800211" text-anchor="middle" stroke-miterlimit="2" stroke-width="3" stroke-dasharray="">5</text><text fill="#000000" stroke="none" font-family="Arial" font-size="20px" font-style="normal" font-weight="normal" text-decoration="normal" x="142.1085402467455" y="60.88164702800211" text-anchor="middle">5</text></g></g></g></g><g id="expressions-91719132"><g id="sketch-91719132"><title>表达式1</title><path fill="#c74440" stroke="none" paint-order="stroke fill markers" d="" fill-opacity="0.4"/><g><path fill="none" stroke="#c74440" class="dcg-svg-curve" paint-order="fill stroke markers" d=" M 327.63292153342206 400 L 327.63292153342206 400 L 314.2759029271284 392.1875 L 301.44917798876793 384.375 L 289.3533417775134 376.69270833333337 L 277.9623215213579 369.140625 L 267.25048635968477 361.71875 L 257.0172412333213 354.296875 L 247.42959593580446 347.00520833333337 L 238.4628034292973 339.84375 L 229.94160490765063 332.68229166666663 L 222.00885234175115 325.6510416666667 L 214.64068251654174 318.75 L 207.6862890561169 311.8489583333333 L 201.26524993149278 305.078125 L 195.24252027300514 298.3072916666667 L 189.6181000806539 291.5364583333333 L 184.39198935443923 284.765625 L 179.65327417947103 278.125 L 175.4612852739365 271.7447916666667 L 171.69777040098927 265.4947916666667 L 168.40953945610133 259.5052083333333 L 165.5559365913979 253.77604166666669 L 163.04272008888617 248.17708333333331 L 160.85088775879854 242.70833333333331 L 158.9618793227574 237.36979166666669 L 157.35757641377495 232.16145833333331 L 156.02030257625347 227.08333333333331 L 154.93282326598515 222.13541666666669 L 154.05805063807668 217.1875 L 153.41068236033084 212.36979166666669 L 152.96497298019622 207.55208333333331 L 152.7209224976729 202.734375 L 152.67702516293227 198.046875 L 152.8240335486476 193.359375 L 153.17405927800604 188.54166666666666 L 153.72574390497576 183.72395833333334 L 154.47908742955673 178.90625 L 155.43408985174895 174.08854166666666 L 156.62481106044018 169.140625 L 158.06804368844828 164.0625 L 159.7353253911582 158.984375 L 161.67809790546207 153.77604166666666 L 163.91403768695773 148.4375 L 166.46126310263287 142.96875 L 169.40848374993172 137.23958333333334 L 172.717662537457 131.38020833333337 L 176.4086854777562 125.39062500000001 L 180.59250504156742 119.140625 L 185.31154472232527 112.63020833333336 L 190.50434612496548 105.98958333333334 L 196.1934467303752 99.21875 L 202.2808568019214 92.44791666666664 L 208.76657633960403 85.67708333333336 L 215.65060534342317 78.90625000000001 L 223.07689233456597 72.00520833333336 L 230.9169556904934 65.10416666666663 L 239.33050543863385 58.07291666666666 L 248.3414047940444 50.91145833333337 L 257.7978981343155 43.75000000000003 L 267.8841479171193 36.45833333333334 L 278.62490118029257 29.036458333333343 L 289.84424447877564 21.614583333333343 L 301.75167652326405 14.0625 L 314.3728281743745 6.380208333333343 L 325.24456742546494 0" stroke-linecap="round" stroke-linejoin="round" stroke-miterlimit="10" stroke-width="5" stroke-dasharray=""/></g></g><g id="sketch-91719132"><title>F(2,0)</title><path fill="#2d70b3" stroke="none" class="dcg-svg-point" paint-order="stroke fill markers" d=" M 217.71851272370475 199.31276962665024 A 7.5 7.5 0 1 1 217.71850897370507 199.30526962790023 Z"/></g><g id="sketch-91719132"><title>K(-2,0)</title><path fill="#348543" stroke="none" class="dcg-svg-point" paint-order="stroke fill markers" d=" M 102.62161464478623 199.31276962665024 A 7.5 7.5 0 1 1 102.62161089478654 199.30526962790023 Z"/></g><g id="sketch-91719132"><title>表达式4</title><path fill="#6042a6" stroke="none" paint-order="stroke fill markers" d="" fill-opacity="0.4"/><g><path fill="none" stroke="#6042a6" class="dcg-svg-curve" paint-order="fill stroke markers" d=" M 95.12161464478623 400 L 95.12161464478623 400 L 95.12161464478623 0" stroke-linecap="round" stroke-linejoin="round" stroke-miterlimit="10" stroke-width="5" stroke-dasharray=""/></g></g></g><g id="labels-91719132"><g transform="rotate(0,0,0) translate(215,168)"><g class="dcg-svg-label"><text fill="none" stroke="#FFF" font-family="arial, sans-serif" font-size="22px" font-style="normal" font-weight="400" text-decoration="normal" x="0" y="19.984" text-anchor="start" stroke-linecap="round" stroke-linejoin="round" stroke-miterlimit="2" stroke-width="3" stroke-dasharray="">F(2,0)</text><text fill="rgb(45, 112, 179)" stroke="none" font-family="arial, sans-serif" font-size="22px" font-style="normal" font-weight="400" text-decoration="normal" x="0" y="19.984" text-anchor="start">F(2,0)</text></g></g><g transform="rotate(0,0,0) translate(23,168)"><g class="dcg-svg-label"><text fill="none" stroke="#FFF" font-family="arial, sans-serif" font-size="22px" font-style="normal" font-weight="400" text-decoration="normal" x="0" y="19.984" text-anchor="start" stroke-linecap="round" stroke-linejoin="round" stroke-miterlimit="2" stroke-width="3" stroke-dasharray="">K(-2,0)</text><text fill="rgb(52, 133, 67)" stroke="none" font-family="arial, sans-serif" font-size="22px" font-style="normal" font-weight="400" text-decoration="normal" x="0" y="19.984" text-anchor="start">K(-2,0)</text></g></g></g><g id="labels-91719132"/></g></svg>

<svg xmlns="http://www.w3.org/2000/svg" width="800" height="800"><g transform="scale(2)"><path fill="#fff" class="dcg-svg-background" d="M0 0h400v400H0z"/><path fill="none" stroke="#000" class="dcg-svg-minor-gridline" paint-order="fill stroke markers" d="M8.5 0v400m29-400v400m29-400v400m29-400v400m28-400v400m58-400v400m29-400v400m28-400v400m29-400v400m29-400v400m29-400v400m29-400v400m28-400v400M0 371.5h400m-400-28h400m-400-29h400m-400-29h400m-400-29h400m-400-28h400m-400-58h400m-400-29h400m-400-29h400M0 84.5h400M0 55.5h400M0 26.5h400" stroke-opacity="0.5" stroke-miterlimit="10"/><path fill="none" stroke="#000" class="dcg-svg-major-gridline" paint-order="fill stroke markers" d="M8.5 0v400m288-400v400M0 343.5h400M0 55.5h400" stroke-miterlimit="10"/><path fill="none" stroke="#000" class="dcg-svg-axis-line" paint-order="fill stroke markers" d="M153 0v400M0 199h400" stroke-opacity="0.9" stroke-miterlimit="10" stroke-width="2"/><g class="dcg-svg-axis-value"><text fill="none" stroke="#fff" font-family="Arial" font-size="20" text-decoration="normal" x="142.11" y="219.75" text-anchor="middle" stroke-miterlimit="2" stroke-width="3">0</text><text font-family="Arial" font-size="20" text-decoration="normal" x="142.11" y="219.75" text-anchor="middle">0</text></g><g class="dcg-svg-axis-value dcg-svg-offcenter-axis-value"><text fill="none" stroke="#fff" font-family="Arial" font-size="20" text-decoration="normal" x="11.89" y="219.75" text-anchor="middle" stroke-miterlimit="2" stroke-width="3">-5</text><text font-family="Arial" font-size="20" text-decoration="normal" x="11.89" y="219.75" text-anchor="middle">-5</text></g><g class="dcg-svg-axis-value"><text fill="none" stroke="#fff" font-family="Arial" font-size="20" text-decoration="normal" x="296.54" y="219.75" text-anchor="middle" stroke-miterlimit="2" stroke-width="3">5</text><text font-family="Arial" font-size="20" text-decoration="normal" x="296.54" y="219.75" text-anchor="middle">5</text></g><g class="dcg-svg-axis-value"><text fill="none" stroke="#fff" font-family="Arial" font-size="20" text-decoration="normal" x="138.78" y="348.62" text-anchor="middle" stroke-miterlimit="2" stroke-width="3">-5</text><text font-family="Arial" font-size="20" text-decoration="normal" x="138.78" y="348.62" text-anchor="middle">-5</text></g><g class="dcg-svg-axis-value"><text fill="none" stroke="#fff" font-family="Arial" font-size="20" text-decoration="normal" x="142.11" y="60.88" text-anchor="middle" stroke-miterlimit="2" stroke-width="3">5</text><text font-family="Arial" font-size="20" text-decoration="normal" x="142.11" y="60.88" text-anchor="middle">5</text></g><path fill="none" stroke="#c74440" class="dcg-svg-curve" paint-order="fill stroke markers" d="m327.633 400-13.357-7.812-12.827-7.813-12.096-7.682-11.39-7.552-10.713-7.422-10.233-7.422-9.587-7.292-8.967-7.161-8.521-7.162-7.933-7.031-7.368-6.901-6.955-6.901-6.42-6.77-6.023-6.772-5.625-6.77-5.226-6.771-4.739-6.641-4.192-6.38-3.763-6.25-3.288-5.99-2.854-5.729-2.513-5.599-2.192-5.469-1.89-5.338-1.603-5.209-1.338-5.078-1.087-4.948-.875-4.947-.647-4.818-.446-4.818-.244-4.818-.044-4.687.147-4.688.35-4.817.552-4.818.753-4.818.955-4.817 1.19-4.948 1.444-5.078 1.667-5.079 1.943-5.208 2.236-5.339 2.547-5.468 2.947-5.73 3.31-5.859 3.69-5.99 4.185-6.25 4.719-6.51 5.192-6.64 5.69-6.771 6.087-6.771 6.486-6.77 6.884-6.772 7.426-6.9 7.84-6.902 8.414-7.031 9.01-7.162 9.457-7.161 10.086-7.292 10.74-7.422 11.22-7.421 11.908-7.552 12.62-7.683L325.246 0" stroke-linecap="round" stroke-linejoin="round" stroke-miterlimit="10" stroke-width="5"/><path fill="#2d70b3" class="dcg-svg-point" paint-order="stroke fill markers" d="M217.719 199.313a7.5 7.5 0 1 1 0-.008Z"/><path fill="#348543" class="dcg-svg-point" paint-order="stroke fill markers" d="M102.622 199.313a7.5 7.5 0 1 1 0-.008Z"/><path fill="none" stroke="#6042a6" class="dcg-svg-curve" paint-order="fill stroke markers" d="M95.122 400V0" stroke-linecap="round" stroke-linejoin="round" stroke-miterlimit="10" stroke-width="5"/><g class="dcg-svg-label" transform="translate(215 168)"><text fill="none" stroke="#fff" font-family="arial, sans-serif" font-size="22" font-weight="400" text-decoration="normal" y="19.98" stroke-linecap="round" stroke-linejoin="round" stroke-miterlimit="2" stroke-width="3">F(2,0)</text><text fill="#2d70b3" font-family="arial, sans-serif" font-size="22" font-weight="400" text-decoration="normal" y="19.98">F(2,0)</text></g><g class="dcg-svg-label" transform="translate(23 168)"><text fill="none" stroke="#fff" font-family="arial, sans-serif" font-size="22" font-weight="400" text-decoration="normal" y="19.98" stroke-linecap="round" stroke-linejoin="round" stroke-miterlimit="2" stroke-width="3">K(-2,0)</text><text fill="#348543" font-family="arial, sans-serif" font-size="22" font-weight="400" text-decoration="normal" y="19.98">K(-2,0)</text></g></g></svg>
